X: 6650
T: Cecil McEachern's
R: jig
M: 6/8
K: Dmajor
FG|:ABA GFE|DFA d2f|Ace g2a|Adf a FG|
ABA GFE|DFA d2f|Ace gaA|d3 d2:|
a|:g2a e2g|f2a d2f|e2g c2e|d2f B2c|
d2f B2d|c2e A2c|dB^G EFG|A3 A2:|

